X:1
T:Lee Mills
T:Lee Mills
T:Marshall
C:Marshall
L:1/8
M:4/4
K:A
V:1 treble 
V:1
 e/ |"A" c>A C>A"D" D>A"E7" E>B |"A" c>A [CE]>A"E7" B<E E>e |"A" d/c/B/A/ E>A"D" F>A"Bm" D>d | %4
"E7" c<e B>e"A" c<A A :| e |"A" c>e a>e"D" f>e"A" a>c |"Bm" d>B"A" c>A"E7" B<E E>e | %8
"A" c>e a>e"D" f>a"A" e>c |"Bm" d>B"E7" e>g"A" a<A A || d |"A" c>e a>e"D" f<a"A" a>c | %12
"Bm" d>b"A" c>a"E7" B<E E>e |"A" d/c/B/A/ E>A"D" F>A"Bm" D>d |"E7" c<a B>e"A" c<A A2 |] %15

